src/apps/scalable/irccloud-desktop.svg

<?xml version="1.0" encoding="UTF-8" standalone="no"?>
<svg
   width="128"
   height="128"
   viewBox="0 0 33.866666 33.866668"
   version="1.1"
   id="svg1443"
   inkscape:version="1.1.2 (0a00cf5339, 2022-02-04)"
   sodipodi:docname="irccloud-desktop.svg"
   xmlns:inkscape="http://www.inkscape.org/namespaces/inkscape"
   xmlns:sodipodi="http://sodipodi.sourceforge.net/DTD/sodipodi-0.dtd"
   xmlns:xlink="http://www.w3.org/1999/xlink"
   xmlns="http://www.w3.org/2000/svg"
   xmlns:svg="http://www.w3.org/2000/svg"
   xmlns:rdf="http://www.w3.org/1999/02/22-rdf-syntax-ns#"
   xmlns:cc="http://creativecommons.org/ns#"
   xmlns:dc="http://purl.org/dc/elements/1.1/">
  <defs
     id="defs1437">
    <linearGradient
       inkscape:collect="always"
       id="linearGradient961">
      <stop
         style="stop-color:#ffffff;stop-opacity:1;"
         offset="0"
         id="stop957" />
      <stop
         style="stop-color:#c2e4ff;stop-opacity:1"
         offset="1"
         id="stop959" />
    </linearGradient>
    <linearGradient
       id="linearGradient1630"
       inkscape:collect="always">
      <stop
         id="stop1626"
         offset="0"
         style="stop-color:#00c4fc;stop-opacity:1" />
      <stop
         id="stop1628"
         offset="1"
         style="stop-color:#006cea;stop-opacity:1" />
    </linearGradient>
    <filter
       color-interpolation-filters="sRGB"
       height="1.1311001"
       width="1.1106"
       y="-0.065563001"
       x="-0.055319"
       id="c-9">
      <feGaussianBlur
         id="feGaussianBlur1093"
         stdDeviation="1.1062912" />
    </filter>
    <linearGradient
       gradientUnits="userSpaceOnUse"
       gradientTransform="matrix(0.13235,0,0,0.13075,-32.379,1.0873)"
       y2="269.48999"
       y1="235.14999"
       x2="657.65002"
       x1="319.20999"
       id="a-12">
      <stop
         id="stop1076"
         offset="0"
         stop-color="#e54c18" />
      <stop
         id="stop1078"
         offset="1"
         stop-color="#fec350" />
    </linearGradient>
    <radialGradient
       inkscape:collect="always"
       xlink:href="#linearGradient1630"
       id="radialGradient948"
       cx="16.951138"
       cy="6.0443439"
       fx="16.951138"
       fy="6.0443439"
       r="14.543719"
       gradientUnits="userSpaceOnUse"
       gradientTransform="matrix(3.1335146,0,0,1.987443,-36.165498,-5.9684452)" />
    <linearGradient
       inkscape:collect="always"
       xlink:href="#linearGradient961"
       id="linearGradient963"
       x1="14.324452"
       y1="13.463608"
       x2="14.324452"
       y2="23.481455"
       gradientUnits="userSpaceOnUse" />
  </defs>
  <sodipodi:namedview
     id="base"
     pagecolor="#ffffff"
     bordercolor="#666666"
     borderopacity="1.0"
     inkscape:pageopacity="0.0"
     inkscape:pageshadow="2"
     inkscape:zoom="2.8"
     inkscape:cx="-40"
     inkscape:cy="78.392857"
     inkscape:document-units="mm"
     inkscape:current-layer="layer1"
     inkscape:document-rotation="0"
     showgrid="false"
     units="px"
     inkscape:window-width="1920"
     inkscape:window-height="1028"
     inkscape:window-x="0"
     inkscape:window-y="26"
     inkscape:window-maximized="1"
     inkscape:pagecheckerboard="0" />
  <metadata
     id="metadata1440">
    <rdf:RDF>
      <cc:Work
         rdf:about="">
        <dc:format>image/svg+xml</dc:format>
        <dc:type
           rdf:resource="http://purl.org/dc/dcmitype/StillImage" />
      </cc:Work>
    </rdf:RDF>
  </metadata>
  <g
     inkscape:label="Capa 1"
     inkscape:groupmode="layer"
     id="layer1">
    <g
       style="opacity:0.18753551"
       transform="matrix(0.97573206,0,0,0.96360993,-65.737228,-36.327649)"
       id="g1702">
      <rect
         ry="6.6098609"
         rx="6.6098609"
         y="40.709618"
         x="69.839508"
         height="29.810888"
         width="29.810888"
         id="rect1634"
         style="fill:none;fill-opacity:1;stroke:#000000;stroke-width:0.1;stroke-linecap:round;stroke-linejoin:round;stroke-miterlimit:4;stroke-dasharray:none;stroke-opacity:0.02" />
      <rect
         style="fill:none;fill-opacity:1;stroke:#000000;stroke-width:0.2;stroke-linecap:round;stroke-linejoin:round;stroke-miterlimit:4;stroke-dasharray:none;stroke-opacity:0.02"
         id="rect1638"
         width="29.810888"
         height="29.810888"
         x="69.839508"
         y="40.709618"
         rx="6.6098609"
         ry="6.6098609" />
      <rect
         ry="6.6098609"
         rx="6.6098609"
         y="40.709618"
         x="69.839508"
         height="29.810888"
         width="29.810888"
         id="rect1640"
         style="fill:none;fill-opacity:1;stroke:#000000;stroke-width:0.3;stroke-linecap:round;stroke-linejoin:round;stroke-miterlimit:4;stroke-dasharray:none;stroke-opacity:0.02" />
      <rect
         style="fill:none;fill-opacity:1;stroke:#000000;stroke-width:0.4;stroke-linecap:round;stroke-linejoin:round;stroke-miterlimit:4;stroke-dasharray:none;stroke-opacity:0.02"
         id="rect1642"
         width="29.810888"
         height="29.810888"
         x="69.839508"
         y="40.709618"
         rx="6.6098609"
         ry="6.6098609" />
      <rect
         ry="6.6098609"
         rx="6.6098609"
         y="40.709618"
         x="69.839508"
         height="29.810888"
         width="29.810888"
         id="rect1644"
         style="fill:none;fill-opacity:1;stroke:#000000;stroke-width:0.5;stroke-linecap:round;stroke-linejoin:round;stroke-miterlimit:4;stroke-dasharray:none;stroke-opacity:0.02" />
      <rect
         style="fill:none;fill-opacity:1;stroke:#000000;stroke-width:0.6;stroke-linecap:round;stroke-linejoin:round;stroke-miterlimit:4;stroke-dasharray:none;stroke-opacity:0.02"
         id="rect1646"
         width="29.810888"
         height="29.810888"
         x="69.839508"
         y="40.709618"
         rx="6.6098609"
         ry="6.6098609" />
      <rect
         ry="6.6098609"
         rx="6.6098609"
         y="40.709618"
         x="69.839508"
         height="29.810888"
         width="29.810888"
         id="rect1648"
         style="fill:none;fill-opacity:1;stroke:#000000;stroke-width:0.7;stroke-linecap:round;stroke-linejoin:round;stroke-miterlimit:4;stroke-dasharray:none;stroke-opacity:0.02" />
      <rect
         style="fill:none;fill-opacity:1;stroke:#000000;stroke-width:0.8;stroke-linecap:round;stroke-linejoin:round;stroke-miterlimit:4;stroke-dasharray:none;stroke-opacity:0.02"
         id="rect1650"
         width="29.810888"
         height="29.810888"
         x="69.839508"
         y="40.709618"
         rx="6.6098609"
         ry="6.6098609" />
      <rect
         ry="6.6098609"
         rx="6.6098609"
         y="40.709618"
         x="69.839508"
         height="29.810888"
         width="29.810888"
         id="rect1652"
         style="fill:none;fill-opacity:1;stroke:#000000;stroke-width:1;stroke-linecap:round;stroke-linejoin:round;stroke-miterlimit:4;stroke-dasharray:none;stroke-opacity:0.02" />
      <rect
         style="fill:none;fill-opacity:1;stroke:#000000;stroke-width:1.2;stroke-linecap:round;stroke-linejoin:round;stroke-miterlimit:4;stroke-dasharray:none;stroke-opacity:0.02"
         id="rect1654"
         width="29.810888"
         height="29.810888"
         x="69.839508"
         y="40.709618"
         rx="6.6098609"
         ry="6.6098609" />
      <rect
         ry="6.6098609"
         rx="6.6098609"
         y="40.709618"
         x="69.839508"
         height="29.810888"
         width="29.810888"
         id="rect1656"
         style="fill:none;fill-opacity:1;stroke:#000000;stroke-width:1.4;stroke-linecap:round;stroke-linejoin:round;stroke-miterlimit:4;stroke-dasharray:none;stroke-opacity:0.02" />
      <rect
         style="fill:none;fill-opacity:1;stroke:#000000;stroke-width:1.6;stroke-linecap:round;stroke-linejoin:round;stroke-miterlimit:4;stroke-dasharray:none;stroke-opacity:0.02"
         id="rect1658"
         width="29.810888"
         height="29.810888"
         x="69.839508"
         y="40.709618"
         rx="6.6098609"
         ry="6.6098609" />
      <rect
         ry="6.6098609"
         rx="6.6098609"
         y="40.709618"
         x="69.839508"
         height="29.810888"
         width="29.810888"
         id="rect1660"
         style="fill:none;fill-opacity:1;stroke:#000000;stroke-width:1.8;stroke-linecap:round;stroke-linejoin:round;stroke-miterlimit:4;stroke-dasharray:none;stroke-opacity:0.02" />
      <rect
         style="fill:none;fill-opacity:1;stroke:#000000;stroke-width:2;stroke-linecap:round;stroke-linejoin:round;stroke-miterlimit:4;stroke-dasharray:none;stroke-opacity:0.02"
         id="rect1662"
         width="29.810888"
         height="29.810888"
         x="69.839508"
         y="40.709618"
         rx="6.6098609"
         ry="6.6098609" />
      <rect
         ry="6.6098609"
         rx="6.6098609"
         y="40.709618"
         x="69.839508"
         height="29.810888"
         width="29.810888"
         id="rect1664"
         style="fill:none;fill-opacity:1;stroke:#000000;stroke-width:2.2;stroke-linecap:round;stroke-linejoin:round;stroke-miterlimit:4;stroke-dasharray:none;stroke-opacity:0.02" />
      <rect
         style="fill:none;fill-opacity:1;stroke:#000000;stroke-width:2.6;stroke-linecap:round;stroke-linejoin:round;stroke-miterlimit:4;stroke-dasharray:none;stroke-opacity:0.02"
         id="rect1666"
         width="29.810888"
         height="29.810888"
         x="69.839508"
         y="40.709618"
         rx="6.6098609"
         ry="6.6098609" />
      <rect
         ry="6.6098609"
         rx="6.6098609"
         y="40.709618"
         x="69.839508"
         height="29.810888"
         width="29.810888"
         id="rect1668"
         style="fill:none;fill-opacity:1;stroke:#000000;stroke-width:3;stroke-linecap:round;stroke-linejoin:round;stroke-miterlimit:4;stroke-dasharray:none;stroke-opacity:0.02" />
      <rect
         style="fill:none;fill-opacity:1;stroke:#000000;stroke-width:3.4;stroke-linecap:round;stroke-linejoin:round;stroke-miterlimit:4;stroke-dasharray:none;stroke-opacity:0.02"
         id="rect1670"
         width="29.810888"
         height="29.810888"
         x="69.839508"
         y="40.709618"
         rx="6.6098609"
         ry="6.6098609" />
      <rect
         ry="6.6098609"
         rx="6.6098609"
         y="40.709618"
         x="69.839508"
         height="29.810888"
         width="29.810888"
         id="rect1672"
         style="fill:none;fill-opacity:1;stroke:#000000;stroke-width:3.8;stroke-linecap:round;stroke-linejoin:round;stroke-miterlimit:4;stroke-dasharray:none;stroke-opacity:0.02" />
      <rect
         style="fill:none;fill-opacity:1;stroke:#000000;stroke-width:4.2;stroke-linecap:round;stroke-linejoin:round;stroke-miterlimit:4;stroke-dasharray:none;stroke-opacity:0.02"
         id="rect1674"
         width="29.810888"
         height="29.810888"
         x="69.839508"
         y="40.709618"
         rx="6.6098609"
         ry="6.6098609" />
      <rect
         ry="6.6098609"
         rx="6.6098609"
         y="40.709618"
         x="69.839508"
         height="29.810888"
         width="29.810888"
         id="rect1676"
         style="fill:none;fill-opacity:1;stroke:#000000;stroke-width:4.6;stroke-linecap:round;stroke-linejoin:round;stroke-miterlimit:4;stroke-dasharray:none;stroke-opacity:0.02" />
      <rect
         style="fill:none;fill-opacity:1;stroke:#000000;stroke-width:5;stroke-linecap:round;stroke-linejoin:round;stroke-miterlimit:4;stroke-dasharray:none;stroke-opacity:0.02"
         id="rect1678"
         width="29.810888"
         height="29.810888"
         x="69.839508"
         y="40.709618"
         rx="6.6098609"
         ry="6.6098609" />
    </g>
    <rect
       ry="6.4494534"
       rx="6.4494534"
       y="2.5391712"
       x="2.4074187"
       height="29.087439"
       width="29.087439"
       id="rect849"
       style="fill:url(#radialGradient948);fill-opacity:1;stroke-width:2.68768;stroke-linecap:round;stroke-linejoin:round" />
    <path
       d="m 17.876256,9.1507254 c -2.998011,0.0032 -5.490741,2.4068616 -5.603687,5.4028926 -1.932626,0.453103 -3.3104279,2.18956 -3.3130719,4.174364 0,2.355345 1.9379099,4.293255 4.2932549,4.293255 0,0 0.288639,0.328928 0.16908,1.243721 -0.1037,0.795242 -2.450392,1.475676 -2.450392,1.475676 0,0 4.047484,1.23568 6.02238,-0.192983 1.715979,-1.24108 1.8745,-2.527737 1.8745,-2.527737 l 4.952433,0.0013 c 1.992731,0 3.632755,-1.640024 3.632755,-3.632755 0,-1.99273 -1.640024,-3.632752 -3.632755,-3.632752 -0.143317,0.0013 -0.285995,0.01123 -0.428004,0.02973 0.06341,-0.336195 0.09643,-0.678334 0.09776,-1.020473 0,-3.079914 -2.534342,-5.6142536 -5.614256,-5.6142536 z"
       fill-rule="nonzero"
       id="path950"
       style="fill:#001e6e;fill-opacity:0.269708;stroke-width:0.6605"
       sodipodi:nodetypes="cccccccccsccccc" />
    <path
       d="m 17.090984,8.7043451 c -2.998011,0.0032 -5.490741,2.4068619 -5.603687,5.4028929 -1.9326259,0.453103 -3.310428,2.18956 -3.3130717,4.174364 0,2.355345 1.9379097,4.293255 4.2932547,4.293255 0,0 0.288639,0.328928 0.16908,1.243721 -0.1037,0.795242 -1.66512,1.922056 -1.66512,1.922056 0,0 3.262212,0.7893 5.237108,-0.639363 1.715979,-1.24108 1.8745,-2.527737 1.8745,-2.527737 l 4.952433,0.0013 c 1.992731,0 3.632755,-1.640024 3.632755,-3.632755 0,-1.99273 -1.640024,-3.632752 -3.632755,-3.632752 -0.143317,0.0013 -0.285995,0.01123 -0.428004,0.02973 0.06341,-0.336195 0.09643,-0.678334 0.09776,-1.020473 0,-3.079914 -2.534342,-5.6142539 -5.614256,-5.6142539 z"
       fill-rule="nonzero"
       id="path9"
       style="stroke-width:0.6605;fill-opacity:1;fill:url(#linearGradient963)" />
    <path
       id="path952"
       style="fill:#0075ff;fill-opacity:0.09734049;stroke-width:2.49638"
       d="M 64.595703 32.898438 C 63.141956 32.899989 61.719667 33.052096 60.34375 33.337891 C 60.721665 33.317064 61.101834 33.305096 61.484375 33.304688 C 73.124995 33.304687 82.703125 42.884771 82.703125 54.525391 C 82.698098 55.818514 82.573644 57.110201 82.333984 58.380859 C 82.870711 58.310938 83.409501 58.274445 83.951172 58.269531 C 91.482754 58.269531 97.681641 64.468422 97.681641 72 C 97.681641 78.403852 93.194324 83.828896 87.222656 85.314453 C 94.681043 85.226492 100.79297 79.069402 100.79297 71.591797 C 100.79297 64.060219 94.594082 57.861328 87.0625 57.861328 C 86.520829 57.866242 85.982039 57.904688 85.445312 57.974609 C 85.684972 56.703951 85.809426 55.410311 85.814453 54.117188 C 85.814453 42.476568 76.236323 32.898437 64.595703 32.898438 z M 65.232422 85.724609 C 65.232422 85.724609 64.634027 90.586648 58.148438 95.277344 C 56.138256 96.731533 53.774612 97.56518 51.394531 98.025391 C 54.747768 97.789229 58.367172 96.96363 61.259766 94.871094 C 66.951699 90.754409 68.051821 86.702971 68.25 85.724609 L 65.232422 85.724609 z "
       transform="scale(0.26458333)" />
  </g>
</svg>

<?xml version="1.0" encoding="UTF-8"?>
<svg id="svg1443" width="128" height="128" version="1.1" viewBox="0 0 33.867 33.867" xmlns="http://www.w3.org/2000/svg" xmlns:cc="http://creativecommons.org/ns#" xmlns:dc="http://purl.org/dc/elements/1.1/" xmlns:rdf="http://www.w3.org/1999/02/22-rdf-syntax-ns#" xmlns:xlink="http://www.w3.org/1999/xlink">
 <defs id="defs1437">
  <radialGradient id="radialGradient948" cx="16.951" cy="6.0443" r="14.544" gradientTransform="matrix(3.1335 0 0 1.9874 -36.165 -5.9684)" gradientUnits="userSpaceOnUse">
   <stop id="stop1626" stop-color="#00c4fc" offset="0"/>
   <stop id="stop1628" stop-color="#006cea" offset="1"/>
  </radialGradient>
  <linearGradient id="linearGradient963" x1="14.324" x2="14.324" y1="13.464" y2="23.481" gradientUnits="userSpaceOnUse">
   <stop id="stop957" stop-color="#fff" offset="0"/>
   <stop id="stop959" stop-color="#c2e4ff" offset="1"/>
  </linearGradient>
 </defs>
 <metadata id="metadata1440">
  <rdf:RDF>
   <cc:Work rdf:about="">
    <dc:format>image/svg+xml</dc:format>
    <dc:type rdf:resource="http://purl.org/dc/dcmitype/StillImage"/>
   </cc:Work>
  </rdf:RDF>
 </metadata>
 <g id="layer1">
  <g id="g1702" transform="matrix(.97573 0 0 .96361 -65.737 -36.328)" fill="none" opacity=".18754" stroke="#000" stroke-linecap="round" stroke-linejoin="round" stroke-opacity=".02">
   <rect id="rect1634" x="69.84" y="40.71" width="29.811" height="29.811" rx="6.6099" ry="6.6099" stroke-width=".1"/>
   <rect id="rect1638" x="69.84" y="40.71" width="29.811" height="29.811" rx="6.6099" ry="6.6099" stroke-width=".2"/>
   <rect id="rect1640" x="69.84" y="40.71" width="29.811" height="29.811" rx="6.6099" ry="6.6099" stroke-width=".3"/>
   <rect id="rect1642" x="69.84" y="40.71" width="29.811" height="29.811" rx="6.6099" ry="6.6099" stroke-width=".4"/>
   <rect id="rect1644" x="69.84" y="40.71" width="29.811" height="29.811" rx="6.6099" ry="6.6099" stroke-width=".5"/>
   <rect id="rect1646" x="69.84" y="40.71" width="29.811" height="29.811" rx="6.6099" ry="6.6099" stroke-width=".6"/>
   <rect id="rect1648" x="69.84" y="40.71" width="29.811" height="29.811" rx="6.6099" ry="6.6099" stroke-width=".7"/>
   <rect id="rect1650" x="69.84" y="40.71" width="29.811" height="29.811" rx="6.6099" ry="6.6099" stroke-width=".8"/>
   <rect id="rect1652" x="69.84" y="40.71" width="29.811" height="29.811" rx="6.6099" ry="6.6099"/>
   <rect id="rect1654" x="69.84" y="40.71" width="29.811" height="29.811" rx="6.6099" ry="6.6099" stroke-width="1.2"/>
   <rect id="rect1656" x="69.84" y="40.71" width="29.811" height="29.811" rx="6.6099" ry="6.6099" stroke-width="1.4"/>
   <rect id="rect1658" x="69.84" y="40.71" width="29.811" height="29.811" rx="6.6099" ry="6.6099" stroke-width="1.6"/>
   <rect id="rect1660" x="69.84" y="40.71" width="29.811" height="29.811" rx="6.6099" ry="6.6099" stroke-width="1.8"/>
   <rect id="rect1662" x="69.84" y="40.71" width="29.811" height="29.811" rx="6.6099" ry="6.6099" stroke-width="2"/>
   <rect id="rect1664" x="69.84" y="40.71" width="29.811" height="29.811" rx="6.6099" ry="6.6099" stroke-width="2.2"/>
   <rect id="rect1666" x="69.84" y="40.71" width="29.811" height="29.811" rx="6.6099" ry="6.6099" stroke-width="2.6"/>
   <rect id="rect1668" x="69.84" y="40.71" width="29.811" height="29.811" rx="6.6099" ry="6.6099" stroke-width="3"/>
   <rect id="rect1670" x="69.84" y="40.71" width="29.811" height="29.811" rx="6.6099" ry="6.6099" stroke-width="3.4"/>
   <rect id="rect1672" x="69.84" y="40.71" width="29.811" height="29.811" rx="6.6099" ry="6.6099" stroke-width="3.8"/>
   <rect id="rect1674" x="69.84" y="40.71" width="29.811" height="29.811" rx="6.6099" ry="6.6099" stroke-width="4.2"/>
   <rect id="rect1676" x="69.84" y="40.71" width="29.811" height="29.811" rx="6.6099" ry="6.6099" stroke-width="4.6"/>
   <rect id="rect1678" x="69.84" y="40.71" width="29.811" height="29.811" rx="6.6099" ry="6.6099" stroke-width="5"/>
  </g>
  <rect id="rect849" x="2.4074" y="2.5392" width="29.087" height="29.087" rx="6.4495" ry="6.4495" fill="url(#radialGradient948)" stroke-linecap="round" stroke-linejoin="round" stroke-width="2.6877"/>
  <path id="path950" d="m17.876 9.1507c-2.998 0.0032-5.4907 2.4069-5.6037 5.4029-1.9326 0.4531-3.3104 2.1896-3.3131 4.1744 0 2.3553 1.9379 4.2933 4.2933 4.2933 0 0 0.28864 0.32893 0.16908 1.2437-0.1037 0.79524-2.4504 1.4757-2.4504 1.4757s4.0475 1.2357 6.0224-0.19298c1.716-1.2411 1.8745-2.5277 1.8745-2.5277l4.9524 0.0013c1.9927 0 3.6328-1.64 3.6328-3.6328 0-1.9927-1.64-3.6328-3.6328-3.6328-0.14332 0.0013-0.286 0.01123-0.428 0.02973 0.06341-0.3362 0.09643-0.67833 0.09776-1.0205 0-3.0799-2.5343-5.6143-5.6143-5.6143z" fill="#001e6e" fill-opacity=".26971" stroke-width=".6605"/>
  <path id="path9" d="m17.091 8.7043c-2.998 0.0032-5.4907 2.4069-5.6037 5.4029-1.9326 0.4531-3.3104 2.1896-3.3131 4.1744 0 2.3553 1.9379 4.2933 4.2933 4.2933 0 0 0.28864 0.32893 0.16908 1.2437-0.1037 0.79524-1.6651 1.9221-1.6651 1.9221s3.2622 0.7893 5.2371-0.63936c1.716-1.2411 1.8745-2.5277 1.8745-2.5277l4.9524 0.0013c1.9927 0 3.6328-1.64 3.6328-3.6328 0-1.9927-1.64-3.6328-3.6328-3.6328-0.14332 0.0013-0.286 0.01123-0.428 0.02973 0.06341-0.3362 0.09643-0.67833 0.09776-1.0205 0-3.0799-2.5343-5.6143-5.6143-5.6143z" fill="url(#linearGradient963)" stroke-width=".6605"/>
  <path id="path952" transform="scale(.26458)" d="m64.596 32.898c-1.4537 0.001551-2.876 0.15366-4.252 0.43945 0.37792-0.020827 0.75808-0.032795 1.1406-0.033203 11.641-1e-6 21.219 9.5801 21.219 21.221-0.005027 1.2931-0.12948 2.5848-0.36914 3.8555 0.53673-0.069921 1.0755-0.10641 1.6172-0.11133 7.5316 0 13.73 6.1989 13.73 13.73 0 6.4039-4.4873 11.829-10.459 13.314 7.4584-0.087961 13.57-6.2451 13.57-13.723 0-7.5316-6.1989-13.73-13.73-13.73-0.54167 0.004914-1.0805 0.04336-1.6172 0.11328 0.23966-1.2707 0.36411-2.5643 0.36914-3.8574 0-11.641-9.5781-21.219-21.219-21.219zm0.63672 52.826s-0.5984 4.862-7.084 9.5527c-2.0102 1.4542-4.3738 2.2878-6.7539 2.748 3.3532-0.23616 6.9726-1.0618 9.8652-3.1543 5.6919-4.1167 6.7921-8.1681 6.9902-9.1465h-3.0176z" fill="#0075ff" fill-opacity=".09734" stroke-width="2.4964"/>
 </g>
</svg>
